packages/bezier-icons/icons/hand.svg

<svg width="24" height="24" viewBox="0 0 24 24" fill="none" xmlns="http://www.w3.org/2000/svg">
<path fill-rule="evenodd" clip-rule="evenodd" d="M18.5802 16.8575C17.8162 18.7665 15.9942 20.0005 13.9372 20.0005H13.1582C11.8242 20.0005 10.5692 19.4805 9.6252 18.5375L4.1242 13.0435C4.0062 12.9255 3.9892 12.7895 3.9892 12.7175C3.9892 12.6455 4.0062 12.5085 4.1502 12.3645C4.2482 12.2665 4.3772 12.2125 4.5122 12.2115C4.6452 12.2115 4.7702 12.2645 4.8652 12.3585L7.1252 14.6225C7.4422 14.9345 7.9112 15.0285 8.3232 14.8565C8.7342 14.6855 9.0002 14.2865 9.0002 13.8405V4.50049C9.0002 4.22449 9.2242 4.00049 9.5002 4.00049C9.7762 4.00049 10.0002 4.22449 10.0002 4.50049V12.0005H12.0002V3.50449C12.0002 3.22649 12.2242 3.00049 12.5002 3.00049C12.7762 3.00049 13.0002 3.22649 13.0002 3.50449V12.0005H15.0002V4.50449C15.0002 4.22649 15.2242 4.00049 15.5002 4.00049C15.7762 4.00049 16.0002 4.22649 16.0002 4.50449V12.0005H18.0002V10.9955L18.0072 7.47049C18.0082 7.20849 18.2232 6.99349 18.4862 6.99349C18.7682 6.99349 18.9982 7.22149 18.9982 7.50349L19.0002 14.6775C19.0002 15.4265 18.8582 16.1605 18.5802 16.8575ZM20.9982 7.50349C20.9982 6.11949 19.8722 4.99349 18.4862 4.99349C18.3202 4.99349 18.1572 5.01049 18.0002 5.04249V4.50449C18.0002 3.12449 16.8782 2.00049 15.5002 2.00049C15.1852 2.00049 14.8862 2.06549 14.6082 2.17149C14.1652 1.47049 13.3892 1.00049 12.5002 1.00049C11.6122 1.00049 10.8352 1.46949 10.3922 2.17149C10.1142 2.06449 9.8152 2.00049 9.5002 2.00049C8.1222 2.00049 7.0002 3.12149 7.0002 4.50049V11.6665L6.2812 10.9465C5.8092 10.4725 5.1812 10.2115 4.5132 10.2115H4.5082C3.8402 10.2135 3.2112 10.4755 2.7102 10.9765C2.2452 11.4415 1.9892 12.0605 1.9892 12.7175C1.9892 13.3765 2.2462 13.9945 2.7112 14.4595L8.2112 19.9525C9.5332 21.2725 11.2902 22.0005 13.1582 22.0005H13.9372C16.8162 22.0005 19.3672 20.2725 20.4362 17.5995C20.8102 16.6665 21.0002 15.6825 21.0002 14.6775L20.9982 7.50349Z" fill="#313234"/>
</svg>

<svg xmlns="http://www.w3.org/2000/svg" width="24" height="24" fill="none" viewBox="0 0 24 24"><path fill="#313234" fill-rule="evenodd" d="M18.58 16.858A4.98 4.98 0 0 1 13.937 20h-.779a4.97 4.97 0 0 1-3.533-1.462l-5.5-5.494a.46.46 0 0 1-.136-.327c0-.072.017-.209.161-.353a.5.5 0 0 1 .715-.006l2.26 2.265A1.1 1.1 0 0 0 9 13.84V4.5a.5.5 0 0 1 1 0V12h2V3.504c0-.278.224-.504.5-.504s.5.226.5.504v8.497h2V4.504c0-.278.224-.504.5-.504s.5.226.5.504v7.497h2v-1.005l.007-3.526a.48.48 0 0 1 .48-.477c.281 0 .511.228.511.51L19 14.678c0 .749-.142 1.482-.42 2.18m2.418-9.355A2.513 2.513 0 0 0 18 5.043v-.539A2.506 2.506 0 0 0 15.5 2c-.315 0-.614.065-.892.171a2.49 2.49 0 0 0-2.108-1.17c-.888 0-1.665.468-2.108 1.17a2.5 2.5 0 0 0-.892-.17A2.503 2.503 0 0 0 7 4.5v7.165l-.719-.72a2.48 2.48 0 0 0-1.768-.735h-.005a2.52 2.52 0 0 0-1.798.765 2.45 2.45 0 0 0-.72 1.741c0 .66.256 1.277.721 1.742l5.5 5.494A6.96 6.96 0 0 0 13.158 22h.78a6.97 6.97 0 0 0 6.498-4.4A7.8 7.8 0 0 0 21 14.676z" clip-rule="evenodd"/></svg>
